X: 1
T: the Balmedie Lasses
C: Alastair Hunter
B: Roy Goldring "14 Social Dances"
P: Tune for "Alastair Hunter's Reel"
R: reel
Z: 2015 John Chambers <jc:trillian.mit.edu>
M: 4/4
L: 1/8
K: D
% - - - - - - - - - - - - - - - - - - - - - - - - -
V: 1
A2 |\
"D"D2DF "A7"EDEF | "D"D2dc "G"BABd | "D"ABAF "Bm"DFAF | "Em"EGFE "A7"DB,A,B, |
"D"D2DF "A7"EDEF | "D"D2dc "G"BABd | "D"ABdA "Bm"BAFD | "Em"EG"A7"FE "D"D2 :|
|: de |\
"F#7"f2fg fedc | "Bm"dedc Bcd^d | "E7"e2ef edcB | "A7"cdcB AGFG |
"D"A2dc "Em"B2ed | "F#7"c2fe "Bm"d2ef | "Em"gfed "A7"cdec | "D"d2D2 D2 :|
% - - - - - - - - - - - - - - - - - - - - - - - - -
V: 2 clef=bass middle=d
z2 |\
d2[a2f2] A2[c'2a2g2] | d2f2 g2[d'2b2] | d2[d'2a2] B2[b2f2] | e2[b2g2] A2[g2e2] |
d2[a2f2] A2[c'2a2g2] | d2f2 g2[d'2b2] | d2[d'2f2] B2[b2f2] | e2A2 D2 :|
|: z2 |\
F2[^a2f2] c2[a2f2] | B2[d'2b2] f2b2 | e2[e'2b2] e2^g2 | a2[e'2c'2] A2c2 |
d2[a2f2] e2[b2g2] | f2^a2 b2B2 | e2[b2g2] A2[c'2a2g2] | [d'2a2f2d2]A2 D2 :|
